X:1
T:# / 3 handel: be ye sure that the lord he is god (chandos 1.4)
%%score [ 1 2 ] { ( 3 4 7 ) | ( 5 6 ) }
L:1/8
Q:1/4=60
M:4/4
K:C
V:1 treble nm="Canto"
V:2 bass nm="Basso"
V:3 treble nm="Pianoforte"
V:4 treble 
V:7 treble 
V:5 bass 
V:6 bass 
V:1
 z8 | z8 |"^G. F. Handel""^(1685-1759)" z8 |[M:4/4] z8 | z8 | z8 | z8 | A2 B2 cd/c/ B^G/^F/ | %8
w: |||||||Be ye sure that the Lord he is|
w: ||||||||
 E4 z4 | A2 B2 cd/c/ B^G/^F/ | E4 z4 | e3 B c2 ^G>G | AB/c/ B/c/4B/4A/B/ cB/A/ G/ A/ G/ F/ | %13
w: God,|be ye ,~sure that the Lord he is|God,|it is he that has|made * * * * * * * * * * * * * *|
w: |||||
 ECEF G2 Gc | BG z2 z2 Gc | BGE^F G2 GA | B>A G^F/E/ ^DD z E | ^F2 GG A2 z B | c2 BB e3 d/c/ | %19
w: * us, it is he that has|made us, that has|made us, it is he that has|made * * * * * us, and|not we our- selves, and|not we our- selves, * *|
w: ||||||
 B3 c (G2 ^F>)E | E4 z4 | z8 | z8 | z8 | z4 z ef^c | dA _B4 A2 | A2 dE E4 | D4 z Bc^G | %28
w: * not we * our-|||||we are his|peo- ple and the|sheep of his pas-|ture, we are his|
w: |\-selves;||||||||
 A4- A^G AB | E2 dd d4 | z2 Be c2 BA | ^G2 AB E2 A2 | Bc/B/ cA ^G4 | A4 z4 | z8 | z8 | z8 | z8 | %38
w: peo- * ple and the|sheep, and the sheep,|and the sheep of his|pas- * * * *|~\-~ * * * * *|ture.|||||
w: ||||||||||
 z8 |] %39
w: |
w: |
V:2
 z8 | z8 | z8 |[M:4/4] z8 | z8 | z8 | z8 | z4 A,2 B,2 | CD/C/ B,^G,/^F,/ E,4- | E,2 z2 A,2 B,2 | %10
w: |||||||Be ye|sure that the Lord he is God,|* be ye|
 CD/C/ B,^G,/^F,/ E,4 | z4 E3 B, | C2 ^G,>G, A,B,/C/ B,/C/4B,/4A,/B,/ | %13
w: sure that the Lord he is God,|it is|he that has made * * * * * * *|
 CB,/A,/ G,/A,/G,/F,/ E,C,E,F, | G,2 G,C B,G, z2 | z2 G,C B,G,E,^F, | G,2 G,A, B,>A,G,^F,/E,/ | %17
w: * * * * * * * * us, it is|he that has made us,|that has made us, it is|he that has made * * * *|
 ^D,D, z E, ^F,2 G,G, | A,2 z B, C2 B,A, | ^DE/D/ EA, B,2 B,,2 | E,4 z4 | z8 | z8 | z8 | %24
w: * us, and not we our-|selves, and not we our-|selves * * * not we our-|\-selves;||||
 z B,C^G, A,3 A, | A,2 G,2 ^C2 CA, | D2 _B,G, A,4 | D,4 z4 | z B,CA, E3 D | C2 B,A, ^G,2 A,B, | %30
w: we are his peo- ple|and the sheep of his|pas- * * *|ture,|we are his peo- ple|and the * sheep of his|
 E,8- | E,2 ED C2 B,A, | ^G,E,A,D, E,4 | A,,4 z4 | z8 | z8 | z8 | z8 | z8 |] %39
w: pas-|||ture.||||||
V:3
 z4 A2 B2 | %1
"^Be ye sure that the Lord he is God""^( No. 4 from Chandos Anthem I: O be joyful in the Lord)" cd/c/ B^G/^F/ z e2 B | %2
 e3 b c'b/a/ ^g>a |[M:4/4] ab/c'/ b/c'/4b/4[fb]/b/ c'(e a-a/4g/4f/4e/4 | f3) g/f/ e3 a | %5
 d3 e c3 b/a/ | ^ga/b/ g>a a/d/e/f/ cB/A/ | A4 z4 | z4 A2 B2 | x x/ B^G/^F/ x/ E4 | e3 B e'3 b | %11
 c'b/a/ ^ga/b/ [ea]b/c'/ be | e4 z C z2 | z c g4 g2- | g2 gf/e/ d2 z2 | %15
 z2 [EG][C^Fc] [DB]2 [EG][CFA] | [GB]2 z2 z2 b2- | bb z a/g/ [^d^f]2 e2 | z cB[GB] [GA]4 | %19
 [^D^FA]2 [EG]4 [DF]2 | z4 e2 .^f2 | ga/g/ ^f^d/^c/ B2 bf | g^f/e/ b2- be a2- | abg^f g2 Tf>e | %24
 e4 z EF^C | z2 _B4 A2 | z4 z EF^C | z ef^c d3 d | !courtesy!=c4 B4 | E2 DC B,2 z2 | z2 e4 dc | %31
 z2 e2- e2 dc | Bc/B/ cA z2 [Bd^g]2 |!f! [Aca]2 b2 c'd'/c'/ b^g/^f/ | e2 d3 c/B/ cA | %35
 f3 g/f/ e3 a | d3 e c3 B/A/ | dc/B/ B^g/a/ a/d/e/f/ [Ac][^GB]/A/ | A8 |] %39
V:4
 z4 CD/C/ x2 | x4 E4 | cB/A/"^i" ^G2 AB/c/ B/c/4B/4A/B/ |[M:4/4] ca gf/e/ e4- | eA d2 dc/B/ c2- | %5
 cB/A/ B2- BA d2- | dcB>A A A2 ^G | A4 z4 | z4 CD/C/ x2 | cd/c/ x2 x4 | x4 c'b/a/ ^g>g | e2 B2 x4 | %12
 x4 z x !courtesy!=G2- | G4 G2- GF/E/ | D2 z2 z4 | x4 x4 | D2 B2- B B2 a/g/ | ^f2 B2 A2 B2 | %18
 E3 E E4 | x4 x4 | E2 ^F2 GA/G/ F^D/^C/ | x z B^F GF/E/ ^d>d | e!courtesy!=d/c/ Bc/d/ c3 B/A/ | %23
 ^dB e4 d2 | x4 A,4 | D2 z2 ^C2 z2 | x4 x4 | x4 x4 | z ^GA^F x4 | z8 | x4 x4 | B2 cd E2 z2 | %32
 x4 x4 | x2 e4 ed | eE^GB e4- | [Ae]A d2- dc/B/ c2- | cB/A/ B2- BA d2- | ^GA GB AA EE | C8 |] %39
V:5
 A,2 B,2 x2 B,^G,/^F,/ | E, x x2 CB,/A,/ E^G, | A,C,E,E,, A,,A,EE, |[M:4/4] A,F,G,G,, C,2 ^C,2 | %4
 D,2 z B, ^G,2 z A, | ^F,B,^G,E, A,>=G,=F,D, | E,A,,E,E,, F,D,E,E,, | A,,A,^G,E, A,C,D,E, | %8
 A,2 B,2 x2 B,^G,/^F,/ | E,2 x2 A,C,E,D, | C,A,^G,E, A,,C,E,E,, | A,,A,E,D, C,B,,/A,,/ E,E,, | %12
 A,,A,^G,E, A,,A,B,=G, | CB,/A,/G,F, E,C,E,F, | G,F,E,C, G,F,E,C, | G,B,,C,A,, G,,B,,C,A,, | %16
 G,,D,G,A, B,>A, G,^F,/E,/ | ^D,2 E,2 ^F,2 G,2 | A,2 B,2 C2 B,A, | B,2 E,2 B,,4 | %20
 E,G,B,^D, E,G,A,[B,,B,] | B, x x2 EG,B,B,, | E,2 ^G,E, A,3 C | B,G,CA, B,A,B,B,, | %24
 E,2 z E, F,^C,D,A,, | A,2 G,2 E,2 z2 | F,,2 G,,2 A,,4 | D3 G, B,3 ^G, | A,B,CA, E3 !courtesy!=D | %29
 C2 B,A, ^G,2 z2 | E,8- | E,8 | E,3 D, E,2 E,,2 | A,,A,^G,E, A,2 B,2 | CD/C/ DE E,^G,A,C | %35
 D,2 z B, ^G,2 z A, | x2 E2- E2 x2 | E,A,,E,E,, F,D,E,E,, | A,,8 |] %39
V:6
 A,,A,^G,E, A,C,D,E, | A,,A,^G,E, x4 | x4 x4 |[M:4/4] x8 | x8 | x8 | x8 | x8 | %8
 A,,C,E,^G, A,,C,E,D, | C,A,,E,^G, x4 | x4 x4 | x4 x4 | x8 | x8 | x8 | x8 | x8 | x8 | x8 | x8 | %20
 x4 x4 | E,E^DB, x4 | x4 x4 | x4 x4 | x2 x2 x4 | _B,,4 A,,3 G,, | x4 x4 | D,3 E, F,3 E, | %28
 ^D,4 E,4 | E,8 | x4 x4 | z4 C2 B,A, | ^G,2 A,F, x4 | x4 x4 | x2 B,^G,/^F,/ x4 | x4 x4 | %36
 ^F,[B,^F]^G,E, A,>=G,=F,D, | x4 x4 | A,,,8 |] %39
V:7
 x8 | x8 | x8 |[M:4/4] x8 | x8 | x8 | x8 | x8 | x8 | x8 | x8 | x8 | x8 | x8 | x8 | x8 | x8 | x8 | %18
 x8 | x8 | x8 | x8 | x8 | x8 | x8 | x8 | x8 | x8 | x8 | x8 | x8 | x8 | x8 | x8 | x4 ^G2 E(A | %35
 x4) x4 | x4 x2 AF | x4 x4 | x4 x4 |] %39

